X: 63
M:6/8
L:1/8
Q:160
K:G
|: B3 c3| B3 A2 G| B>AB| c2 B|A>GF G3|B3 c3| B3 A2 G| B>AB| c2 B|A>GF G3:|

